X:1
T: A Morning in Summer
R:Jig
Q:180
K:D
M:6/8
L:1/16
A2|A4D2 D4E2|F4E2 F4D2|G4F2 G4A2|d4c2 A4G2|A4D2 D4E2|F4E2 F4D2|D4G2 F4G2|A4G2 G4A2|
A4D2 D4E2|F4E2 F4D2|G4F2 G4A2|d4c2 A4G2|A4D2 D4E2|F4E2 F4D2|D4G2 F4G2|A4G2 G4A2|
F4G2 A4B2|=c6 A2B2^c2|d4c2 d4e2|=f4d2 d4e2|=f4e2 f4d2|=c4A2 A4F2|G4F2 G4A2|d4c2 A4G2|
F4G2 A4B2|=c6 A2B2^c2|d4c2 d4e2|=f4d2 d4e2|=f4e2 f4d2|=c4A2 A4F2|G4F2 G4A2|d4c2 A4||
